findly-builder/apps/searchassist/src/assets/icons/sidemenu/summery.svg

<svg width="14" height="14" viewBox="0 0 14 14" fill="none" xmlns="http://www.w3.org/2000/svg">
<path fill-rule="evenodd" clip-rule="evenodd" d="M1.31308 0.777832C1.59226 0.777832 1.82152 0.991583 1.84613 1.26436L1.84832 1.31308V11.8746C1.84832 12.0161 1.95395 12.1326 2.09071 12.1496L2.1255 12.1518H12.687C12.9826 12.1518 13.2223 12.3914 13.2223 12.687C13.2223 12.9662 13.0085 13.1955 12.7358 13.2201L12.687 13.2223H2.1255C1.40379 13.2223 0.814531 12.6553 0.779481 11.9419L0.777832 11.8746V1.31308C0.777832 1.01747 1.01747 0.777832 1.31308 0.777832ZM7.81248 6.46852C8.09166 6.46852 8.32093 6.68227 8.34554 6.95505L8.34772 7.00376V10.2545C8.34772 10.5501 8.10809 10.7898 7.81248 10.7898C7.53329 10.7898 7.30403 10.576 7.27942 10.3032L7.27723 10.2545V7.00376C7.27723 6.70816 7.51687 6.46852 7.81248 6.46852ZM11.0622 4.84261C11.3414 4.84261 11.5706 5.05636 11.5952 5.32913L11.5974 5.37785V10.2524C11.5974 10.548 11.3578 10.7877 11.0622 10.7877C10.783 10.7877 10.5537 10.5739 10.5291 10.3011L10.5269 10.2524V5.37785C10.5269 5.08225 10.7666 4.84261 11.0622 4.84261ZM4.56278 2.40374C4.84196 2.40374 5.07122 2.61749 5.09584 2.89027L5.09802 2.93899V10.2508C5.09802 10.5464 4.85839 10.7861 4.56278 10.7861C4.28359 10.7861 4.05433 10.5723 4.02972 10.2995L4.02753 10.2508V2.93899C4.02753 2.64338 4.26717 2.40374 4.56278 2.40374Z" fill="#202124"/>
</svg>

<svg width="14" height="14" fill="none" xmlns="http://www.w3.org/2000/svg"><path fill-rule="evenodd" clip-rule="evenodd" d="M1.313.778c.28 0 .509.214.533.486l.002.05v10.56c0 .142.106.259.243.276l.034.002h10.562a.535.535 0 0 1 .049 1.068l-.049.002H2.126a1.347 1.347 0 0 1-1.347-1.28l-.001-.067V1.313c0-.296.24-.535.535-.535Zm6.5 5.69c.279 0 .508.214.533.487l.002.049v3.25a.535.535 0 0 1-1.069.05l-.002-.05v-3.25c0-.296.24-.535.535-.535Zm3.25-1.625c.278 0 .508.213.532.486l.002.049v4.874a.535.535 0 0 1-1.068.05l-.002-.05V5.378c0-.296.24-.535.535-.535Zm-6.5-2.44c.279 0 .508.214.533.487l.002.049v7.312a.535.535 0 0 1-1.068.049l-.002-.05V2.94c0-.296.24-.535.535-.535Z" fill="#202124"/></svg>
